build/category/FlagSolid.svg

<svg xmlns="http://www.w3.org/2000/svg" fill="none" viewBox="0 0 24 24" focusable="false"><path d="M0 0H24V24H0z"/><path fill="#74767B" fill-rule="evenodd" d="M3.99561 15.3365L3.99562 20.3177C3.99562 20.6767 4.28664 20.9677 4.64562 20.9677C5.00461 20.9677 5.29562 20.6767 5.29562 20.3177L5.29562 15.9828L18.2845 15.9829C19.6235 15.9829 20.4048 14.472 19.631 13.3793L17.0103 9.67859L19.7257 5.59604C20.4551 4.49941 19.6689 3.03225 18.3519 3.03225L5.64561 3.03223C4.73433 3.03223 3.9956 3.77096 3.99561 4.68223L3.99561 15.3291C3.99561 15.3304 3.99561 15.3316 3.99561 15.3328C3.99561 15.3341 3.99561 15.3353 3.99561 15.3365Z"/></svg>

<svg xmlns="http://www.w3.org/2000/svg" fill="none" viewBox="0 0 24 24" focusable="false"><path fill="#74767B" fill-rule="evenodd" d="M3.99 15.33v4.98c0 .36.29.65.65.65s.65-.29.65-.65v-4.33h12.99c1.34 0 2.12-1.51 1.35-2.61l-2.62-3.7 2.71-4.08c.73-1.1-.06-2.56-1.37-2.56H5.64c-.91 0-1.65.74-1.65 1.65v10.65"/></svg>
